packages/sources/icons/src/vitamix/camera-fill.svg

<svg width="16" height="16" viewBox="0 0 16 16" xmlns="http://www.w3.org/2000/svg"><path d="M1.33339 3.99998C1.33339 3.63198 1.63672 3.33331 1.99472 3.33331H14.0054C14.3707 3.33331 14.6667 3.62998 14.6667 3.99998V13.3333C14.6667 13.7013 14.3634 14 14.0054 14H1.99472C1.90747 13.9998 1.82112 13.9824 1.74061 13.9488C1.6601 13.9151 1.58703 13.8659 1.52559 13.804C1.46414 13.7421 1.41553 13.6686 1.38255 13.5878C1.34957 13.5071 1.33286 13.4206 1.33339 13.3333V3.99998ZM9.33339 12C10.2174 12 11.0653 11.6488 11.6904 11.0237C12.3155 10.3985 12.6667 9.5507 12.6667 8.66665C12.6667 7.78259 12.3155 6.93475 11.6904 6.30962C11.0653 5.6845 10.2174 5.33331 9.33339 5.33331C8.44933 5.33331 7.60148 5.6845 6.97636 6.30962C6.35124 6.93475 6.00005 7.78259 6.00005 8.66665C6.00005 9.5507 6.35124 10.3985 6.97636 11.0237C7.60148 11.6488 8.44933 12 9.33339 12ZM2.66672 4.66665V5.99998H4.66672V4.66665H2.66672ZM2.66672 1.33331H6.66672V2.66665H2.66672V1.33331Z"/></svg>

<svg width="16" height="16" xmlns="http://www.w3.org/2000/svg"><path d="M1.333 4a.67.67 0 0 1 .662-.667h12.01c.366 0 .662.297.662.667v9.333a.669.669 0 0 1-.662.667H1.995a.664.664 0 0 1-.662-.667V4Zm8 8a3.333 3.333 0 1 0 0-6.667 3.333 3.333 0 0 0 0 6.667ZM2.667 4.667V6h2V4.667h-2Zm0-3.334h4v1.334h-4V1.333Z"/></svg>
